!!!COM: Hugo Wolf
!!!CNT: Deutscher
!!!TXO: Deutsche 
!!!OTL: Ha2tt Ich Irgend Wohl Bedenken
!!!ODT: 1889/01/26
!!!ONM: No. 43
!!!LYR: Johann Wolfgang von Goethe
!!!ENC: Brian Bice
!!!YOR: 45 Songs on Poems of Goethe and Eichendorff, Dover Publications, 1995
!!NB: Vocal melody and text only encoded.
**kern	**silbe
*clefG2	*
*k[f#c#g#]	*
*M4/4	*
=2	=2
2r	.
{8a	{Ha2tt
8g#	ich
8f#	ir-
8dd	-gend
=3	=3
4cc#	wohl
(12ccn	Be-
12b	|
12a)	|
4g#	-den-
4b}	-ken,}
=4	=4
4r	.
{4cc#	{Balch,
8r	.
8dd#	Bok-
(12ee	-ha-
12dd#)	|
12cc#	-ra,
=5	=5
4dd#	Sa-
4dd#	-mar-
2dd#}	-kand,}
=6	=6
4r	.
{[4ee	{su2-
8ee]	|
8ee	-sses
8ee	Lieb-
8ddn	-chen,
=7	=7
4cc#	dir
4ccn	zu
4b	schen-
4dd}	-ken}
=8	=8
8r	.
{4cc#	{die-
8cc#	-ser
8cc#	Sta2d-
8ee	-te
[4g#	Rausch
=9	=9
4g#]	|
4f#	und
(e#q	Tand?
2cc#)}	|}
=11	=11
4r	.
{[4b	{A-
8b]	|
8b	-ber
8b	frag
8b	ein-
=12	=12
4b	-mal
4b	den
4b	Kai-
4e}	-ser,}
=13	=13
{4e	{ob
4f#	er
4g#	dir
4a	die
=14	=14
4a#	Sta2d-
4b	-te
4.dd}	gibt?}
8r	.
=15	=15
{4a	{Er
4g#	ist
4f#	herr-
4dd	-li-
=16	=16
4cc#	-cher
4ccn	und
4b	wei-
4dd}	-ser;}
=17	=17
8r	.
{4cc#	{doch
8cc#	er
8cc#	weiss
8ee	|
8dd#	nicht,
8cc#	|
=18	=18
4g#	wie
4f#	man
2cc#}	liebt.}
=20	=20
4r	.
{2dd	{Herr-
4e	-scher,
=21	=21
4r	.
8b	zu
8b	der-
4.b	-glei-
8a	-chen
=22	=22
4g#	Ga-
4b}	-ben}
{4.dd	{nim-
8dd	-mer-
=23	=23
8.dd	-mehr
16cc#	|
8.b	be-
16a	|
4g#	-stimmst
4f#	du
=24	=24
4e}	dich!}
4r	.
{4ee	{Solch
4dd	ein
=25	=25
8cc#	Ma2d-
8a	-chen
8a	muss
8ccn	man
4b	ha-
4dd}	-ben}
=26	=26
{4cc#	{und
4cc#	win
8.ee	Bett-
16dd	-ler
[4cc#	sein
=27	=27
2cc#_	|
8cc#]	|
8r	.
4b	wie
=28	=28
4a}	ich.}
4r	.
2r	.
*-	*-
